assets/images/vector/icons/camera_2_icon.svg

<svg fill="none" height="52" viewBox="0 0 59 52" width="59" xmlns="http://www.w3.org/2000/svg"><path d="m46.6667 11.6667h-7.5l-1.69-4.50337c-.4867-1.3-1.73-2.16333-3.12-2.16333h-10.38c-1.39 0-2.6334.86333-3.12 2.16333l-1.69 4.50337h-7.5c-3.68337 0-6.6667 2.9833-6.6667 6.6666v21.6667c0 3.6833 2.98333 6.6667 6.6667 6.6667h35c3.6833 0 6.6666-2.9834 6.6666-6.6667v-21.6667c0-3.6833-2.9833-6.6666-6.6666-6.6666z" stroke="#111" stroke-linecap="round" stroke-linejoin="round" stroke-width="10"/><path d="m29.1667 38.3333c5.0626 0 9.1666-4.104 9.1666-9.1666s-4.104-9.1667-9.1666-9.1667-9.1667 4.1041-9.1667 9.1667 4.1041 9.1666 9.1667 9.1666z" stroke="#111" stroke-linecap="round" stroke-linejoin="round" stroke-width="10"/><path d="m13.334 22.5c1.3807 0 2.5-1.1193 2.5-2.5s-1.1193-2.5-2.5-2.5-2.5 1.1193-2.5 2.5 1.1193 2.5 2.5 2.5z" fill="#111"/></svg>

<svg width="59" height="52" viewBox="0 0 59 52" fill="none" xmlns="http://www.w3.org/2000/svg">
<path d="M46.6667 11.6667H39.1667L37.4767 7.16333C36.99 5.86333 35.7467 5 34.3567 5H23.9767C22.5867 5 21.3433 5.86333 20.8567 7.16333L19.1667 11.6667H11.6667C7.98333 11.6667 5 14.65 5 18.3333V40C5 43.6833 7.98333 46.6667 11.6667 46.6667H46.6667C50.35 46.6667 53.3333 43.6833 53.3333 40V18.3333C53.3333 14.65 50.35 11.6667 46.6667 11.6667Z" stroke="#111111" stroke-width="10" stroke-linecap="round" stroke-linejoin="round"/>
<path d="M29.1667 38.3333C34.2293 38.3333 38.3333 34.2293 38.3333 29.1667C38.3333 24.1041 34.2293 20 29.1667 20C24.1041 20 20 24.1041 20 29.1667C20 34.2293 24.1041 38.3333 29.1667 38.3333Z" stroke="#111111" stroke-width="10" stroke-linecap="round" stroke-linejoin="round"/>
<path d="M13.334 22.5C14.7147 22.5 15.834 21.3807 15.834 20C15.834 18.6193 14.7147 17.5 13.334 17.5C11.9533 17.5 10.834 18.6193 10.834 20C10.834 21.3807 11.9533 22.5 13.334 22.5Z" fill="#111111"/>
</svg>
